Misc/logo.svg

<?xml version="1.0" encoding="utf-8"?>
<!-- Generator: Adobe Illustrator 22.0.1, SVG Export Plug-In . SVG Version: 6.00 Build 0)  -->
<svg version="1.1" id="Шар_1" xmlns="http://www.w3.org/2000/svg" xmlns:xlink="http://www.w3.org/1999/xlink" x="0px" y="0px"
	 width="318.9px" height="318.9px" viewBox="0 0 318.9 318.9" style="enable-background:new 0 0 318.9 318.9;" xml:space="preserve"
	>
<style type="text/css">
	.st0{fill:#FFFFFF;stroke:#B24209;stroke-width:10;stroke-miterlimit:10;}
	.st1{fill:#E0B74F;}
	.st2{fill:#B24209;}
	.st3{fill:#04770C;}
	.st4{fill:#BFC0C1;}
</style>
<circle class="st0" cx="159.5" cy="159.5" r="154.5"/>
<g id="Шар_2_1_">
	<path class="st1" d="M116.4,156.8c-51.3,5.4-50.5,22.8-31,27.7c63,15.8,130.9,1.3,138.8-0.5c43.8-10.1,24.3-21,24.3-21
		s10.8,3.6,12.3,10.3c1.3,5.8,3,12-23.8,17.5c-27.3,7.5-92.7,14.3-131.3,8.3c-19-3-54.8-9.3-50-23.5
		C61.1,159.1,104.7,153.9,116.4,156.8z"/>
	<path class="st1" d="M65.7,192.2c0,0-17,18-4.3,38.5c14.6,23.5,166.9,28.6,195,0.5c17.8-17.8-10.8-39-10.8-39s-0.7,2.7-2.7,6.6
		c-6.4,12.7-24.1,24.9-38.3,28.4c-52.6,12.9-64.2,10.7-108.5,6.3C51.2,228.9,65.7,192.2,65.7,192.2z"/>
	<path class="st2" d="M82.9,170.7c0,0-18,15.3,47.5,17.6c40.9,1.5,89.9-5,107.2-10.7c3.5-1.2,11.5-5.4,8.9-11.1
		c-5.4-11.8-69.3-10.7-69.3-10.7s35.7,3.4,43.7,6.4c22.6,8.4,8.3,13.5-17.5,16C70.9,191.1,82.9,170.7,82.9,170.7z"/>
	<path class="st2" d="M105.7,179c0,0-32.8-11.5,42.5-14.8c8.5-0.4,88-0.8,69.3,9.7c13-7.5-4.6-11.6-26-14.2
		c-21.2-2.6-47.2-6.6-101,4.5C66.2,169.2,105.7,179,105.7,179z"/>
	<path class="st2" d="M173.9,167.5c0-1.1-65.3-2-66.3,5.6c-1,7.6,81.8,9.3,103.8,0.2c1.8-0.8,1.8-3.3,0-4c-5.2-2.1-20.1-4-31-1.2
		c-0.6,0.2,21.1,2.1,15,3.8c-20.7,3.1-42.3,4.5-60.2,0.9c-1.1-0.2-1.2-1.7-0.1-1.8C149.4,169,173.9,168.2,173.9,167.5z"/>
	<ellipse class="st3" cx="111.3" cy="179" rx="2.8" ry="1.3"/>
	<ellipse class="st3" cx="183.8" cy="170.3" rx="4.1" ry="1.3"/>
	<ellipse class="st3" cx="149.6" cy="172.2" rx="4.1" ry="1.3"/>
	<path class="st4" d="M145.4,149.5c-1.6-1,14-16.9,10.8-37.2c-2.3-14.5-11.8-16.3-13.5-29.8c-2.7-21.2,17.9-40.9,20-39.8
		c1.8,1-11.7,16.4-8.3,36.8c2.5,14.8,11.3,16.6,12.8,29.5C169.7,130.8,147.2,150.6,145.4,149.5z"/>
	<path class="st4" d="M177.7,145.5c-0.5-0.8,7.9-4,10.5-12.3c2.9-9.3-4.8-14.6-5.3-25.2c-0.8-17.8,19.3-32.4,20.5-31.5
		c1.1,0.8-14.1,13.6-12.5,30.8c1.1,11.6,9,15.5,6.8,23.7C194.8,141.7,178.4,146.6,177.7,145.5z"/>
	<path class="st4" d="M117.2,146c-1-0.7,10.3-11.4,7.3-22.5c-2.7-9.7-13.4-9.1-18.8-20.5c-5.3-11.3,4.2-30.5,5.6-30.5
		c1.4,0-4.4,17.3,2.8,27.8c7.5,10.9,16.3,9.6,19.1,17.5C137.4,129.6,118.4,146.8,117.2,146z"/>
	<path class="st1" d="M52.2,176.2C50,176.9,29.9,169,39.7,152c6.9-11.9,38.5-22.2,52.8-14.1c9.8,5.6,12.7,15.3,11.7,16
		c-0.7,0.5-3.4-8.3-23.4-10c-11.8-1-23,4.2-29.5,12.9C41.1,170.3,54.1,175.6,52.2,176.2z"/>
	<path class="st1" d="M236.9,154.5c-1-0.9,4.6-8.7,15-13c13-5.4,41.6,8.2,43.8,17.9c3,13.8-31.1,19.8-31.5,19.3
		c-0.3-0.4,14.5-5.6,19.3-15.2c3.2-6.6-18.3-18.2-26.5-17.5C242.4,147.2,237.8,155.3,236.9,154.5z"/>
</g>
</svg>

<svg width="319" height="319" viewBox="0 0 319 319" fill="none" xmlns="http://www.w3.org/2000/svg">
<path d="M116.4 156.8C65.1 162.2 65.9 179.6 85.4 184.5C148.4 200.3 216.3 185.8 224.2 184C268 173.9 248.5 163 248.5 163C248.5 163 259.3 166.6 260.8 173.3C262.1 179.1 263.8 185.3 237 190.8C209.7 198.3 144.3 205.1 105.7 199.1C86.7 196.1 50.9 189.8 55.7 175.6C61.1 159.1 104.7 153.9 116.4 156.8Z" fill="#E0B74F"/>
<path d="M65.7 192.2C65.7 192.2 48.7 210.2 61.4 230.7C76 254.2 228.3 259.3 256.4 231.2C274.2 213.4 245.6 192.2 245.6 192.2C245.6 192.2 244.9 194.9 242.9 198.8C236.5 211.5 218.8 223.7 204.6 227.2C152 240.1 140.4 237.9 96.1 233.5C51.2 228.9 65.7 192.2 65.7 192.2Z" fill="#E0B74F"/>
<path d="M82.9 170.7C82.9 170.7 64.9 186 130.4 188.3C171.3 189.8 220.3 183.3 237.6 177.6C241.1 176.4 249.1 172.2 246.5 166.5C241.1 154.7 177.2 155.8 177.2 155.8C177.2 155.8 212.9 159.2 220.9 162.2C243.5 170.6 229.2 175.7 203.4 178.2C70.9 191.1 82.9 170.7 82.9 170.7Z" fill="#B24209"/>
<path d="M105.7 179C105.7 179 72.9 167.5 148.2 164.2C156.7 163.8 236.2 163.4 217.5 173.9C230.5 166.4 212.9 162.3 191.5 159.7C170.3 157.1 144.3 153.1 90.5 164.2C66.2 169.2 105.7 179 105.7 179Z" fill="#B24209"/>
<path d="M173.9 167.5C173.9 166.4 108.6 165.5 107.6 173.1C106.6 180.7 189.4 182.4 211.4 173.3C213.2 172.5 213.2 170 211.4 169.3C206.2 167.2 191.3 165.3 180.4 168.1C179.8 168.3 201.5 170.2 195.4 171.9C174.7 175 153.1 176.4 135.2 172.8C134.1 172.6 134 171.1 135.1 171C149.4 169 173.9 168.2 173.9 167.5Z" fill="#B24209"/>
<path d="M111.3 180.3C112.846 180.3 114.1 179.718 114.1 179C114.1 178.282 112.846 177.7 111.3 177.7C109.754 177.7 108.5 178.282 108.5 179C108.5 179.718 109.754 180.3 111.3 180.3Z" fill="#04770C"/>
<path d="M183.8 171.6C186.064 171.6 187.9 171.018 187.9 170.3C187.9 169.582 186.064 169 183.8 169C181.536 169 179.7 169.582 179.7 170.3C179.7 171.018 181.536 171.6 183.8 171.6Z" fill="#04770C"/>
<path d="M149.6 173.5C151.864 173.5 153.7 172.918 153.7 172.2C153.7 171.482 151.864 170.9 149.6 170.9C147.336 170.9 145.5 171.482 145.5 172.2C145.5 172.918 147.336 173.5 149.6 173.5Z" fill="#04770C"/>
<path d="M145.4 149.5C143.8 148.5 159.4 132.6 156.2 112.3C153.9 97.8 144.4 96 142.7 82.5C140 61.3 160.6 41.6 162.7 42.7C164.5 43.7 151 59.1 154.4 79.5C156.9 94.3 165.7 96.1 167.2 109C169.7 130.8 147.2 150.6 145.4 149.5Z" fill="#BFC0C1"/>
<path d="M177.7 145.5C177.2 144.7 185.6 141.5 188.2 133.2C191.1 123.9 183.4 118.6 182.9 108C182.1 90.1999 202.2 75.5999 203.4 76.4999C204.5 77.2999 189.3 90.1 190.9 107.3C192 118.9 199.9 122.8 197.7 131C194.8 141.7 178.4 146.6 177.7 145.5Z" fill="#BFC0C1"/>
<path d="M117.2 146C116.2 145.3 127.5 134.6 124.5 123.5C121.8 113.8 111.1 114.4 105.7 103C100.4 91.7 109.9 72.5 111.3 72.5C112.7 72.5 106.9 89.8 114.1 100.3C121.6 111.2 130.4 109.9 133.2 117.8C137.4 129.6 118.4 146.8 117.2 146Z" fill="#BFC0C1"/>
<path d="M52.2 176.2C50 176.9 29.9 169 39.7 152C46.6 140.1 78.2 129.8 92.5 137.9C102.3 143.5 105.2 153.2 104.2 153.9C103.5 154.4 100.8 145.6 80.8 143.9C69 142.9 57.8 148.1 51.3 156.8C41.1 170.3 54.1 175.6 52.2 176.2Z" fill="#E0B74F"/>
<path d="M236.9 154.5C235.9 153.6 241.5 145.8 251.9 141.5C264.9 136.1 293.5 149.7 295.7 159.4C298.7 173.2 264.6 179.2 264.2 178.7C263.9 178.3 278.7 173.1 283.5 163.5C286.7 156.9 265.2 145.3 257 146C242.4 147.2 237.8 155.3 236.9 154.5Z" fill="#E0B74F"/>
</svg>
